assets/icon-teacher.svg

<?xml version="1.0" encoding="UTF-8"?>
<svg width="26px" height="20px" viewBox="0 0 26 20" version="1.1" xmlns="http://www.w3.org/2000/svg" xmlns:xlink="http://www.w3.org/1999/xlink">
    <title>chalkboard-teacher-solid</title>
    <g id="Page-1" stroke="none" stroke-width="1" fill="none" fill-rule="evenodd">
        <g id="Main" transform="translate(-660.000000, -567.000000)" fill="#A9ABB0" fill-rule="nonzero">
            <g id="chalkboard-teacher-solid" transform="translate(660.000000, 567.000000)">
                <path d="M0,0 L0,2 L22,2 L22,18 L8,18 L8,20 L26,20 L26,18 L24,18 L24,0 L0,0 Z M4.0019531,3 C1.8032706,3 0,4.802666 0,7 C0,9.198683 1.8040743,11 4.0019531,11 C6.197134,11 8,9.198683 8,7 C8,4.802666 6.19794,3 4.0019531,3 Z M10,4 L10,6 L15,6 L15,4 L10,4 Z M17,4 L17,6 L20,6 L20,4 L17,4 Z M4.0019531,5 C5.1159662,5 6,5.883334 6,7 C6,8.119317 5.1167719,9 4.0019531,9 C2.881832,9 2,8.119317 2,7 C2,5.883334 2.8826357,5 4.0019531,5 Z M10,8 L10,10 L20,10 L20,8 L10,8 Z M0,12 L0,20 L2,20 L2,14 L5,14 L5,20 L7,20 L7,14.658203 L9.064453,15.75 C9.648752,16.060158 10.351587,16.058921 10.935547,15.75 L10.935547,15.751953 L14.466797,13.884766 L13.533203,12.115234 L10.001953,13.982422 L6.90625,12.347656 C6.475078,12.120046 5.9935054,12 5.5039062,12 L0,12 Z" id="Shape"></path>
            </g>
        </g>
    </g>
</svg>

<svg width="26" height="20" viewBox="0 0 26 20" xmlns="http://www.w3.org/2000/svg"><path d="M0 0v2h22v16H8v2h18v-2h-2V0H0zm4.002 3A4.016 4.016 0 000 7c0 2.199 1.804 4 4.002 4A4.014 4.014 0 008 7c0-2.197-1.802-4-3.998-4zM10 4v2h5V4h-5zm7 0v2h3V4h-3zM4.002 5C5.116 5 6 5.883 6 7c0 1.12-.883 2-1.998 2C2.882 9 2 8.12 2 7c0-1.117.883-2 2.002-2zM10 8v2h10V8H10zM0 12v8h2v-6h3v6h2v-5.342l2.064 1.092c.585.31 1.288.309 1.872 0v.002l3.53-1.867-.933-1.77-3.531 1.867-3.096-1.634A3.005 3.005 0 005.504 12H0z" fill="#89a"/></svg>
